media/assets/spay/Spay Watch/logo/Spay Watch.svg

<?xml version="1.0" encoding="UTF-8" standalone="no"?>
<!-- Created with Inkscape (http://www.inkscape.org/) -->

<svg
   width="210mm"
   height="210mm"
   viewBox="0 0 210 210"
   version="1.1"
   id="svg5"
   inkscape:version="1.1.1 (3bf5ae0d25, 2021-09-20)"
   sodipodi:docname="Spay Watch.svg"
   xmlns:inkscape="http://www.inkscape.org/namespaces/inkscape"
   xmlns:sodipodi="http://sodipodi.sourceforge.net/DTD/sodipodi-0.dtd"
   xmlns="http://www.w3.org/2000/svg"
   xmlns:svg="http://www.w3.org/2000/svg"
   xmlns:rdf="http://www.w3.org/1999/02/22-rdf-syntax-ns#"
   xmlns:cc="http://creativecommons.org/ns#"
   xmlns:dc="http://purl.org/dc/elements/1.1/">
  <title
     id="title5476">Spay Watch</title>
  <sodipodi:namedview
     id="namedview7"
     pagecolor="#505050"
     bordercolor="#eeeeee"
     borderopacity="1"
     inkscape:pageshadow="0"
     inkscape:pageopacity="0"
     inkscape:pagecheckerboard="0"
     inkscape:document-units="mm"
     showgrid="false"
     showguides="true"
     inkscape:guide-bbox="true"
     inkscape:zoom="0.70710678"
     inkscape:cx="400.22244"
     inkscape:cy="385.3732"
     inkscape:window-width="1920"
     inkscape:window-height="1005"
     inkscape:window-x="-9"
     inkscape:window-y="-9"
     inkscape:window-maximized="1"
     inkscape:current-layer="g842" />
  <defs
     id="defs2" />
  <g
     inkscape:label="Layer 1"
     inkscape:groupmode="layer"
     id="layer1">
    <g
       id="g842">
      <g
         id="g5771"
         transform="matrix(0.99999707,0,0,0.99999707,5.1651024e-4,0.00129431)">
        <g
           id="g5647">
          <path
             id="rect2215"
             style="fill:#ffff00;fill-opacity:1;fill-rule:evenodd;stroke:#000000;stroke-width:0;stroke-linecap:round;stroke-linejoin:round;stroke-miterlimit:0;stroke-dasharray:none;paint-order:stroke fill markers"
             d="M 43.452129,27.798821 55.493771,63.798174 H 39.493713 L 27.489279,27.910443 C 12.053766,29.178808 -5.1593749e-4,42.025408 -5.1593749e-4,57.799057 v 94.399923 c 0,16.62 13.38023593749,30.00023 30.00023593749,30.00023 h 149.99963 c 16.62,0 30.00023,-13.38023 30.00023,-30.00023 V 57.799057 c 0,-16.620001 -13.38023,-30.000236 -30.00023,-30.000236 H 99.570666 L 111.61231,63.798174 H 95.612769 L 83.571127,27.798821 H 71.49176 L 83.533918,63.798174 H 67.533863 L 55.492221,27.798821 Z" />
          <rect
             style="fill:#ffff00;fill-opacity:1;fill-rule:evenodd;stroke:#ffa47b;stroke-width:0;stroke-linecap:round;stroke-linejoin:round;stroke-opacity:0.99177"
             id="rect3607"
             width="3.9137125"
             height="14.371651"
             x="4.0479912e-07"
             y="43.427162" />
          <rect
             style="fill:#ffff00;fill-opacity:1;fill-rule:evenodd;stroke:#ffa47b;stroke-width:0;stroke-linecap:round;stroke-linejoin:round;stroke-opacity:0.99177"
             id="rect3607-2"
             width="3.9137125"
             height="14.371651"
             x="206.08629"
             y="43.427002" />
          <g
             id="g5540">
            <path
               id="rect1632"
               style="fill:#ffff00;fill-opacity:1;fill-rule:evenodd;stroke:#ffa47b;stroke-width:0;stroke-linecap:round;stroke-linejoin:round;stroke-opacity:0.99177"
               d="M 56.693359,105.06641 C 25.285487,105.06641 0,130.35189 0,161.75977 c 0,31.40787 25.285487,56.69336 56.693359,56.69335 H 141.68164 L 103.75391,105.06641 Z m 107.533201,0 37.92774,113.38671 h 45.50586 L 209.73242,105.06641 Z m 105.97852,0 37.92773,113.38671 h 45.65235 L 315.85742,105.06641 Z m 106.125,0 37.92773,113.38671 h 322.75 c 31.40788,0 56.69336,-25.28548 56.69336,-56.69335 0,-31.40788 -25.28548,-56.69336 -56.69336,-56.69336 z"
               transform="scale(0.26458333)" />
            <rect
               style="fill:#ffff00;fill-opacity:1;fill-rule:evenodd;stroke:#ffa47b;stroke-width:0;stroke-linecap:round;stroke-linejoin:round;stroke-opacity:0.99177"
               id="rect3933"
               width="30"
               height="30"
               x="180"
               y="27.798817" />
          </g>
        </g>
        <g
           id="g832"
           transform="matrix(1.6153846,0,0,1.6153846,-64.615845,-87.626233)">
          <rect
             style="fill:#000000;fill-opacity:1;fill-rule:evenodd;stroke:#000000;stroke-width:0;stroke-linecap:round;stroke-linejoin:round;stroke-miterlimit:0;stroke-dasharray:none;paint-order:stroke fill markers"
             id="rect2819"
             width="19.339636"
             height="34.498829"
             x="49.52"
             y="126.05"
             rx="9.6698179"
             ry="8.6008682" />
          <rect
             style="fill:#000000;fill-opacity:1;fill-rule:evenodd;stroke:#000000;stroke-width:0;stroke-linecap:round;stroke-linejoin:round;stroke-miterlimit:0;stroke-dasharray:none;paint-order:stroke fill markers"
             id="rect2819-5"
             width="19.339636"
             height="34.498829"
             x="79"
             y="126.05"
             rx="9.6698179"
             ry="8.6008682" />
        </g>
      </g>
    </g>
  </g>
  <metadata
     id="metadata5474">
    <rdf:RDF>
      <cc:Work
         rdf:about="">
        <dc:title>Spay Watch</dc:title>
        <dc:date>2/9/2022</dc:date>
        <dc:creator>
          <cc:Agent>
            <dc:title>PhilMinecraft</dc:title>
          </cc:Agent>
        </dc:creator>
        <dc:publisher>
          <cc:Agent>
            <dc:title>RareFrostbites, Spay Team</dc:title>
          </cc:Agent>
        </dc:publisher>
        <dc:subject>
          <rdf:Bag>
            <rdf:li>Spay</rdf:li>
            <rdf:li>Spay Watch</rdf:li>
          </rdf:Bag>
        </dc:subject>
        <dc:description>Spay Watch is a video sharing platform site made by Spay Team dedicated for long-form content, kinda like YouTube...?</dc:description>
      </cc:Work>
    </rdf:RDF>
  </metadata>
</svg>

<?xml version="1.0" encoding="UTF-8" standalone="no"?>
<!-- Created with Inkscape (http://www.inkscape.org/) -->

<svg
   width="210mm"
   height="210mm"
   viewBox="0 0 210 210"
   version="1.1"
   id="svg5"
   inkscape:version="1.1.1 (3bf5ae0d25, 2021-09-20)"
   sodipodi:docname="Spay Watch.svg"
   xmlns:inkscape="http://www.inkscape.org/namespaces/inkscape"
   xmlns:sodipodi="http://sodipodi.sourceforge.net/DTD/sodipodi-0.dtd"
   xmlns="http://www.w3.org/2000/svg"
   xmlns:svg="http://www.w3.org/2000/svg"
   xmlns:rdf="http://www.w3.org/1999/02/22-rdf-syntax-ns#"
   xmlns:cc="http://creativecommons.org/ns#"
   xmlns:dc="http://purl.org/dc/elements/1.1/">
  <title
     id="title5476">Spay Watch</title>
  <sodipodi:namedview
     id="namedview7"
     pagecolor="#505050"
     bordercolor="#eeeeee"
     borderopacity="1"
     inkscape:pageshadow="0"
     inkscape:pageopacity="0"
     inkscape:pagecheckerboard="0"
     inkscape:document-units="mm"
     showgrid="false"
     showguides="true"
     inkscape:guide-bbox="true"
     inkscape:zoom="0.70710678"
     inkscape:cx="400.22244"
     inkscape:cy="385.3732"
     inkscape:window-width="1920"
     inkscape:window-height="1005"
     inkscape:window-x="-9"
     inkscape:window-y="-9"
     inkscape:window-maximized="1"
     inkscape:current-layer="g842" />
  <defs
     id="defs2" />
  <g
     inkscape:label="Layer 1"
     inkscape:groupmode="layer"
     id="layer1">
    <g
       id="g842">
      <g
         id="g5771">
        <g
           id="g5647">
          <path
             id="rect2215"
             style="fill:#ffff00;fill-opacity:1;fill-rule:evenodd;stroke:#000000;stroke-width:0;stroke-linecap:round;stroke-linejoin:round;stroke-miterlimit:0;stroke-dasharray:none;paint-order:stroke fill markers"
             d="M 43.452129,27.798821 55.493771,63.798174 H 39.493713 L 27.489279,27.910443 C 12.053766,29.178808 -5.1593749e-4,42.025408 -5.1593749e-4,57.799057 v 94.399923 c 0,16.62 13.38023593749,30.00023 30.00023593749,30.00023 h 149.99963 c 16.62,0 30.00023,-13.38023 30.00023,-30.00023 V 57.799057 c 0,-16.620001 -13.38023,-30.000236 -30.00023,-30.000236 H 99.570666 L 111.61231,63.798174 H 95.612769 L 83.571127,27.798821 H 71.49176 L 83.533918,63.798174 H 67.533863 L 55.492221,27.798821 Z" />
          <rect
             style="fill:#ffff00;fill-opacity:1;fill-rule:evenodd;stroke:#ffa47b;stroke-width:0;stroke-linecap:round;stroke-linejoin:round;stroke-opacity:0.99177"
             id="rect3607"
             width="3.9137125"
             height="14.371651"
             x="4.0479912e-07"
             y="43.427162" />
          <rect
             style="fill:#ffff00;fill-opacity:1;fill-rule:evenodd;stroke:#ffa47b;stroke-width:0;stroke-linecap:round;stroke-linejoin:round;stroke-opacity:0.99177"
             id="rect3607-2"
             width="3.9137125"
             height="14.371651"
             x="206.08629"
             y="43.427002" />
          <g
             id="g5540">
            <path
               id="rect1632"
               style="fill:#ffff00;fill-opacity:1;fill-rule:evenodd;stroke:#ffa47b;stroke-width:0;stroke-linecap:round;stroke-linejoin:round;stroke-opacity:0.99177"
               d="M 56.693359 105.06641 C 25.285487 105.06641 1.8947806e-14 130.35189 0 161.75977 C 0 193.16764 25.285487 218.45313 56.693359 218.45312 L 141.68164 218.45312 L 103.75391 105.06641 L 56.693359 105.06641 z M 164.22656 105.06641 L 202.1543 218.45312 L 247.66016 218.45312 L 209.73242 105.06641 L 164.22656 105.06641 z M 270.20508 105.06641 L 308.13281 218.45312 L 353.78516 218.45312 L 315.85742 105.06641 L 270.20508 105.06641 z M 376.33008 105.06641 L 414.25781 218.45312 L 737.00781 218.45312 C 768.41569 218.45312 793.70117 193.16764 793.70117 161.75977 C 793.70117 130.35189 768.41569 105.06641 737.00781 105.06641 L 376.33008 105.06641 z "
               transform="scale(0.26458333)" />
            <rect
               style="fill:#ffff00;fill-opacity:1;fill-rule:evenodd;stroke:#ffa47b;stroke-width:0;stroke-linecap:round;stroke-linejoin:round;stroke-opacity:0.99177"
               id="rect3933"
               width="30"
               height="30"
               x="180"
               y="27.798817" />
          </g>
        </g>
        <g
           id="g832"
           transform="matrix(1.6153846,0,0,1.6153846,-64.615845,-87.626233)">
          <rect
             style="fill:#000000;fill-opacity:1;fill-rule:evenodd;stroke:#000000;stroke-width:0;stroke-linecap:round;stroke-linejoin:round;stroke-miterlimit:0;stroke-dasharray:none;paint-order:stroke fill markers"
             id="rect2819"
             width="19.339636"
             height="34.498829"
             x="49.52"
             y="126.05"
             rx="9.6698179"
             ry="8.6008682" />
          <rect
             style="fill:#000000;fill-opacity:1;fill-rule:evenodd;stroke:#000000;stroke-width:0;stroke-linecap:round;stroke-linejoin:round;stroke-miterlimit:0;stroke-dasharray:none;paint-order:stroke fill markers"
             id="rect2819-5"
             width="19.339636"
             height="34.498829"
             x="79"
             y="126.05"
             rx="9.6698179"
             ry="8.6008682" />
        </g>
      </g>
    </g>
  </g>
  <metadata
     id="metadata5474">
    <rdf:RDF>
      <cc:Work
         rdf:about="">
        <dc:title>Spay Watch</dc:title>
        <dc:date>2/9/2022</dc:date>
        <dc:creator>
          <cc:Agent>
            <dc:title>PhilMinecraft</dc:title>
          </cc:Agent>
        </dc:creator>
        <dc:publisher>
          <cc:Agent>
            <dc:title>RareFrostbites, Spay Team</dc:title>
          </cc:Agent>
        </dc:publisher>
        <dc:subject>
          <rdf:Bag>
            <rdf:li>Spay</rdf:li>
            <rdf:li>Spay Watch</rdf:li>
          </rdf:Bag>
        </dc:subject>
        <dc:description>Spay Watch is a video sharing platform site made by Spay Team dedicated for long-form content that's kinda like YouTube...?</dc:description>
      </cc:Work>
    </rdf:RDF>
  </metadata>
</svg>
